app/img/icons/tag.svg

<?xml version="1.0" encoding="UTF-8" standalone="no"?>
<!-- Generator: Adobe Illustrator 17.1.0, SVG Export Plug-In . SVG Version: 6.00 Build 0)  -->

<svg
   xmlns:dc="http://purl.org/dc/elements/1.1/"
   xmlns:cc="http://creativecommons.org/ns#"
   xmlns:rdf="http://www.w3.org/1999/02/22-rdf-syntax-ns#"
   xmlns:svg="http://www.w3.org/2000/svg"
   xmlns="http://www.w3.org/2000/svg"
   xmlns:sodipodi="http://sodipodi.sourceforge.net/DTD/sodipodi-0.dtd"
   xmlns:inkscape="http://www.inkscape.org/namespaces/inkscape"
   version="1.1"
   id="Laag_1"
   x="0px"
   y="0px"
   viewBox="0 0 56.7 56.7"
   enable-background="new 0 0 56.7 56.7"
   xml:space="preserve"
   inkscape:version="0.48.5 r10040"
   width="100%"
   height="100%"
   sodipodi:docname="tag.svg"><metadata
     id="metadata33"><rdf:RDF><cc:Work
         rdf:about=""><dc:format>image/svg+xml</dc:format><dc:type
           rdf:resource="http://purl.org/dc/dcmitype/StillImage" /></cc:Work></rdf:RDF></metadata><defs
     id="defs31" /><sodipodi:namedview
     pagecolor="#ffffff"
     bordercolor="#666666"
     borderopacity="1"
     objecttolerance="10"
     gridtolerance="10"
     guidetolerance="10"
     inkscape:pageopacity="0"
     inkscape:pageshadow="2"
     inkscape:window-width="1920"
     inkscape:window-height="1056"
     id="namedview29"
     showgrid="false"
     inkscape:zoom="5.886321"
     inkscape:cx="-4.7775237"
     inkscape:cy="27.191511"
     inkscape:window-x="1920"
     inkscape:window-y="24"
     inkscape:window-maximized="1"
     inkscape:current-layer="Laag_1" /><g
     id="g3"
     style="fill:#fec81c;fill-opacity:1"><g
       id="g5"
       style="fill:#fec81c;fill-opacity:1"><path
         fill="#ECB026"
         d="M28.3,56.6c-15.6,0-28.3-12.7-28.3-28.3c0-15.6,12.7-28.3,28.3-28.3s28.3,12.7,28.3,28.3    C56.6,43.9,43.9,56.6,28.3,56.6L28.3,56.6z M28.3,1.3c-14.9,0-27,12.1-27,27c0,14.9,12.1,27,27,27s27-12.1,27-27    C55.3,13.5,43.2,1.3,28.3,1.3L28.3,1.3z"
         id="path7"
         style="fill:#fec81c;fill-opacity:1" /></g></g><path
     d="M 26.3,44.3 10.7,28.7 24.5,15 h 15.6 v 15.6 l -13.8,13.7 0,0 z M 12.5,28.7 26.3,42.5 38.8,30 V 16.2 H 25 l -12.5,12.5 0,0 z"
     id="path13"
     inkscape:connector-curvature="0"
     style="fill:#fec81c;fill-opacity:1" /><path
     style="fill:#fec81c;fill-opacity:1"
     inkscape:connector-curvature="0"
     id="path19"
     d="m 21.2,31.3 c -0.2,0 -0.3,-0.1 -0.4,-0.2 -0.2,-0.2 -0.2,-0.6 0,-0.9 L 28,23 c 0.2,-0.2 0.6,-0.2 0.9,0 0.2,0.2 0.2,0.6 0,0.9 l -7.2,7.2 c -0.2,0.1 -0.4,0.2 -0.5,0.2 l 0,0 z" /><path
     style="fill:#fec81c;fill-opacity:1"
     inkscape:connector-curvature="0"
     id="path23"
     d="m 24.4,34.5 c -0.2,0 -0.3,-0.1 -0.4,-0.2 -0.2,-0.2 -0.2,-0.6 0,-0.9 l 7.2,-7.2 c 0.2,-0.2 0.6,-0.2 0.9,0 0.2,0.2 0.2,0.6 0,0.9 l -7.2,7.2 c -0.2,0.1 -0.3,0.2 -0.5,0.2 l 0,0 z" /><path
     d="m 33.9,23.5 c -0.6,0 -1.2,-0.2 -1.7,-0.7 -0.9,-0.9 -0.9,-2.4 0,-3.3 0.4,-0.4 1,-0.7 1.7,-0.7 l 0,0 c 0.6,0 1.2,0.2 1.7,0.7 0.9,0.9 0.9,2.4 0,3.3 -0.5,0.5 -1.1,0.7 -1.7,0.7 l 0,0 z m 0,-3.4 c -0.3,0 -0.6,0.1 -0.8,0.3 -0.4,0.4 -0.4,1.1 0,1.6 0.4,0.4 1.1,0.4 1.5,0 0.4,-0.4 0.4,-1.1 0,-1.6 -0.2,-0.2 -0.5,-0.3 -0.7,-0.3 l 0,0 z"
     id="path27"
     inkscape:connector-curvature="0"
     style="fill:#fec81c;fill-opacity:1" /></svg>

<?xml version="1.0" encoding="utf-8"?>
<!-- Generator: Adobe Illustrator 17.1.0, SVG Export Plug-In . SVG Version: 6.00 Build 0)  -->
<!DOCTYPE svg PUBLIC "-//W3C//DTD SVG 1.1//EN" "http://www.w3.org/Graphics/SVG/1.1/DTD/svg11.dtd">
<svg version="1.1" id="Laag_1" xmlns="http://www.w3.org/2000/svg" xmlns:xlink="http://www.w3.org/1999/xlink" x="0px" y="0px"
	 viewBox="0 0 56.7 56.7" enable-background="new 0 0 56.7 56.7" xml:space="preserve">
<g>
	<g>
		<path fill="#ECB026" d="M28.3,56.6c-15.6,0-28.3-12.7-28.3-28.3c0-15.6,12.7-28.3,28.3-28.3s28.3,12.7,28.3,28.3
			C56.6,43.9,43.9,56.6,28.3,56.6L28.3,56.6z M28.3,1.3c-14.9,0-27,12.1-27,27c0,14.9,12.1,27,27,27s27-12.1,27-27
			C55.3,13.5,43.2,1.3,28.3,1.3L28.3,1.3z"/>
	</g>
</g>
<g>
	<g>
		<path fill="#ECB026" d="M26.3,44.3L10.7,28.7L24.5,15h15.6v15.6L26.3,44.3L26.3,44.3z M12.5,28.7l13.8,13.8L38.8,30V16.2H25
			L12.5,28.7L12.5,28.7z"/>
	</g>
	<g>
		<g>
			<path fill="#ECB026" d="M21.2,31.3c-0.2,0-0.3-0.1-0.4-0.2c-0.2-0.2-0.2-0.6,0-0.9l7.2-7.2c0.2-0.2,0.6-0.2,0.9,0
				c0.2,0.2,0.2,0.6,0,0.9l-7.2,7.2C21.5,31.2,21.3,31.3,21.2,31.3L21.2,31.3z"/>
		</g>
		<g>
			<path fill="#ECB026" d="M24.4,34.5c-0.2,0-0.3-0.1-0.4-0.2c-0.2-0.2-0.2-0.6,0-0.9l7.2-7.2c0.2-0.2,0.6-0.2,0.9,0
				c0.2,0.2,0.2,0.6,0,0.9l-7.2,7.2C24.7,34.4,24.6,34.5,24.4,34.5L24.4,34.5z"/>
		</g>
	</g>
	<g>
		<path fill="#ECB026" d="M33.9,23.5c-0.6,0-1.2-0.2-1.7-0.7c-0.9-0.9-0.9-2.4,0-3.3c0.4-0.4,1-0.7,1.7-0.7l0,0
			c0.6,0,1.2,0.2,1.7,0.7c0.9,0.9,0.9,2.4,0,3.3C35.1,23.3,34.5,23.5,33.9,23.5L33.9,23.5z M33.9,20.1c-0.3,0-0.6,0.1-0.8,0.3
			c-0.4,0.4-0.4,1.1,0,1.6c0.4,0.4,1.1,0.4,1.5,0c0.4-0.4,0.4-1.1,0-1.6C34.4,20.2,34.1,20.1,33.9,20.1L33.9,20.1z"/>
	</g>
</g>
</svg>
